www/assets/images/test_icons/flags/ET.svg

<svg fill="none" height="15" viewBox="0 0 21 15" width="21" xmlns="http://www.w3.org/2000/svg" xmlns:xlink="http://www.w3.org/1999/xlink"><mask id="a" height="15" maskUnits="userSpaceOnUse" width="21" x="0" y="0"><path d="m19 0h-17c-1.10457 0-2 .89543-2 2v11c0 1.1046.89543 2 2 2h17c1.1046 0 2-.8954 2-2v-11c0-1.10457-.8954-2-2-2z" fill="#fff"/></mask><g mask="url(#a)"><path d="m19 0h-17c-1.10457 0-2 .89543-2 2v11c0 1.1046.89543 2 2 2h17c1.1046 0 2-.8954 2-2v-11c0-1.10457-.8954-2-2-2z" fill="#fddf00"/><path clip-rule="evenodd" d="m0 10h21v5h-21z" fill="#dd0a07" fill-rule="evenodd"/><path clip-rule="evenodd" d="m0 0h21v5h-21z" fill="#008a2a" fill-rule="evenodd"/><path d="m10.5 12c2.4853 0 4.5-2.01472 4.5-4.5s-2.0147-4.5-4.5-4.5c-2.48528 0-4.5 2.01472-4.5 4.5s2.01472 4.5 4.5 4.5z" fill="#0643b2"/><path clip-rule="evenodd" d="m10.498 8.74999-1.47.773.27999-1.637-1.18799-1.16 1.64299-.237.73501-1.49.734 1.49 1.643.237-1.19 1.16.282 1.636" fill="#fddf00" fill-rule="evenodd"/><path d="m19 .5h-17c-.82843 0-1.5.67157-1.5 1.5v11c0 .8284.67157 1.5 1.5 1.5h17c.8284 0 1.5-.6716 1.5-1.5v-11c0-.82843-.6716-1.5-1.5-1.5z" stroke="#000" stroke-opacity=".1"/></g></svg>

<svg width="21" height="15" viewBox="0 0 21 15" fill="none" xmlns="http://www.w3.org/2000/svg">
<mask id="mask0_3_156" style="mask-type:alpha" maskUnits="userSpaceOnUse" x="0" y="0" width="21" height="15">
<path d="M19 0H2C0.89543 0 0 0.89543 0 2V13C0 14.1046 0.89543 15 2 15H19C20.1046 15 21 14.1046 21 13V2C21 0.89543 20.1046 0 19 0Z" fill="white"/>
</mask>
<g mask="url(#mask0_3_156)">
<path d="M19 0H2C0.89543 0 0 0.89543 0 2V13C0 14.1046 0.89543 15 2 15H19C20.1046 15 21 14.1046 21 13V2C21 0.89543 20.1046 0 19 0Z" fill="#FDDF00"/>
<path fill-rule="evenodd" clip-rule="evenodd" d="M0 10H21V15H0V10Z" fill="#DD0A07"/>
<path fill-rule="evenodd" clip-rule="evenodd" d="M0 0H21V5H0V0Z" fill="#008A2A"/>
<path d="M10.5 12C12.9853 12 15 9.98528 15 7.5C15 5.01472 12.9853 3 10.5 3C8.01472 3 6 5.01472 6 7.5C6 9.98528 8.01472 12 10.5 12Z" fill="#0643B2"/>
<path fill-rule="evenodd" clip-rule="evenodd" d="M10.498 8.74999L9.028 9.52299L9.30799 7.88599L8.12 6.72599L9.76299 6.48899L10.498 4.99899L11.232 6.48899L12.875 6.72599L11.685 7.88599L11.967 9.52199" fill="#FDDF00"/>
<path d="M19 0.5H2C1.17157 0.5 0.5 1.17157 0.5 2V13C0.5 13.8284 1.17157 14.5 2 14.5H19C19.8284 14.5 20.5 13.8284 20.5 13V2C20.5 1.17157 19.8284 0.5 19 0.5Z" stroke="black" stroke-opacity="0.1"/>
</g>
</svg>
